img/bg_get.svg

<?xml version="1.0" encoding="UTF-8" standalone="no"?>
<!DOCTYPE svg PUBLIC "-//W3C//DTD SVG 1.1//EN" "http://www.w3.org/Graphics/SVG/1.1/DTD/svg11.dtd">
<svg width="100%" height="100%" viewBox="0 0 135 40" version="1.1" xmlns="http://www.w3.org/2000/svg" xmlns:xlink="http://www.w3.org/1999/xlink" xml:space="preserve" xmlns:serif="http://www.serif.com/" style="fill-rule:evenodd;clip-rule:evenodd;stroke-miterlimit:10;">
    <g transform="matrix(1,0,0,1,-10,-10)">
        <path d="M145,15C145,12.24 142.76,10 140,10L15,10C12.24,10 10,12.24 10,15L10,45C10,47.76 12.24,50 15,50L140,50C142.76,50 145,47.76 145,45L145,15Z"/>
        <path d="M140,10.8C142.304,10.8 144.2,12.696 144.2,15L144.2,45C144.2,47.304 142.304,49.2 140,49.2L15,49.2C12.696,49.2 10.8,47.304 10.8,45L10.8,15C10.8,12.696 12.696,10.8 15,10.8L140,10.8M140,10L15,10C12.257,10 10,12.257 10,15L10,45C10,47.743 12.257,50 15,50L140,50C142.743,50 145,47.743 145,45L145,15C145,12.257 142.743,10 140,10Z" style="fill:rgb(166,166,166);fill-rule:nonzero;"/>
        <path d="M56.34,23L55.6,23L55.6,17.68L52.6,17.68L52.6,23L51.85,23L51.85,17L56.34,17L56.34,23ZM62,18.78C62.031,19.324 61.796,19.85 61.37,20.19C60.854,20.545 60.235,20.717 59.61,20.68L58.9,20.68L58.9,23L58.15,23L58.15,17L59.73,17C61.243,17 62,17.593 62,18.78ZM58.9,20L59.5,20C59.949,20.035 60.399,19.934 60.79,19.71C61.071,19.487 61.221,19.137 61.19,18.78C61.217,18.45 61.078,18.127 60.82,17.92C60.474,17.702 60.068,17.6 59.66,17.63L58.9,17.63L58.9,20ZM66.73,23L63.39,23L63.39,17L66.73,17L66.73,17.66L64.14,17.66L64.14,19.53L66.58,19.53L66.58,20.18L64.14,20.18L64.14,22.32L66.73,22.32L66.73,23ZM73,24.58L72.28,24.58L72.28,23L68.17,23L68.17,24.58L67.45,24.58L67.45,22.33L67.91,22.33C68.34,21.539 68.676,20.7 68.91,19.83C69.211,18.912 69.402,17.962 69.48,17L72.25,17L72.25,22.31L73,22.31L73,24.58ZM71.49,22.33L71.49,17.7L70.14,17.7C70.062,18.509 69.894,19.308 69.64,20.08C69.411,20.863 69.096,21.617 68.7,22.33L71.49,22.33ZM78.47,23L77.72,23L77.72,17.68L75.83,17.68L75.7,18.68C75.527,20.013 75.377,20.973 75.25,21.56C75.184,21.998 75.012,22.413 74.75,22.77C74.534,23.001 74.226,23.125 73.91,23.11C73.725,23.113 73.541,23.079 73.37,23.01L73.37,22.38C73.514,22.448 73.671,22.482 73.83,22.48C74.04,22.48 74.22,22.34 74.34,22.07C74.544,21.474 74.681,20.857 74.75,20.23C74.897,19.27 75.047,18.203 75.2,17.03L78.47,17.03L78.47,23ZM84,23L83.28,21.15L80.93,21.15L80.22,23L79.46,23L81.8,17L82.48,17L84.81,23L84,23ZM83.05,20.48L82.38,18.67L82.09,17.77C82.01,18.097 81.923,18.397 81.83,18.67L81.15,20.48L83.05,20.48ZM89.17,17L89.17,17.67L86.55,17.67L86.55,23L85.8,23L85.8,17L89.17,17ZM93.82,23L93.1,21.15L90.73,21.15L90,23L89.24,23L91.58,17L92.26,17L94.59,23L93.82,23ZM92.87,20.48L92.2,18.67L91.91,17.77C91.83,18.097 91.743,18.397 91.65,18.67L91,20.48L92.87,20.48ZM100.5,17.59C99.921,17.562 99.36,17.802 98.98,18.24C98.59,18.741 98.395,19.366 98.43,20C98.397,20.646 98.6,21.282 99,21.79C99.386,22.224 99.951,22.456 100.53,22.42C101.019,22.41 101.504,22.329 101.97,22.18L101.97,22.83C101.734,22.918 101.489,22.982 101.24,23.02C100.972,23.056 100.701,23.072 100.43,23.07C99.679,23.108 98.948,22.815 98.43,22.27C97.888,21.641 97.602,20.83 97.63,20C97.626,19.439 97.753,18.884 98,18.38C98.216,17.93 98.565,17.556 99,17.31C99.47,17.047 100.002,16.916 100.54,16.93C101.11,16.916 101.675,17.036 102.19,17.28L101.89,17.92C101.457,17.709 100.982,17.597 100.5,17.59ZM106.74,23L103.4,23L103.4,17L106.74,17L106.74,17.66L104.15,17.66L104.15,19.53L106.59,19.53L106.59,20.18L104.15,20.18L104.15,22.32L106.74,22.32L106.74,23ZM110.57,17L112.28,17C112.882,16.954 113.485,17.079 114.02,17.36C114.38,17.614 114.582,18.04 114.55,18.48C114.563,18.799 114.46,19.111 114.26,19.36C114.039,19.606 113.738,19.766 113.41,19.81C113.787,19.855 114.139,20.024 114.41,20.29C114.649,20.566 114.768,20.926 114.74,21.29C114.763,21.77 114.559,22.233 114.19,22.54C113.748,22.864 113.207,23.023 112.66,22.99L110.56,22.99L110.57,17ZM111.32,19.55L112.42,19.55C112.769,19.571 113.116,19.492 113.42,19.32C113.646,19.14 113.766,18.858 113.74,18.57C113.763,18.287 113.628,18.014 113.39,17.86C113.046,17.69 112.663,17.614 112.28,17.64L111.28,17.64L111.32,19.55ZM111.32,20.18L111.32,22.35L112.53,22.35C112.908,22.379 113.285,22.281 113.6,22.07C113.844,21.863 113.975,21.55 113.95,21.23C113.971,20.921 113.831,20.622 113.58,20.44C113.247,20.246 112.864,20.156 112.48,20.18L111.32,20.18Z" style="fill:white;fill-rule:nonzero;stroke:white;stroke-width:0.2px;"/>
        <path d="M78.14,31.75C75.816,31.761 73.91,33.676 73.91,36C73.91,38.331 75.829,40.25 78.16,40.25C80.491,40.25 82.41,38.331 82.41,36C82.41,35.98 82.41,35.959 82.41,35.939C82.41,33.641 80.519,31.749 78.22,31.749C78.194,31.749 78.167,31.749 78.14,31.75ZM78.14,38.58C78.08,38.584 78.02,38.586 77.96,38.586C76.545,38.586 75.38,37.422 75.38,36.006C75.38,34.591 76.545,33.426 77.96,33.426C79.373,33.426 80.537,34.587 80.54,36C80.542,36.04 80.543,36.08 80.543,36.121C80.543,37.449 79.468,38.549 78.14,38.58ZM68.83,31.75C66.502,31.755 64.59,33.672 64.59,36C64.59,38.331 66.509,40.25 68.84,40.25C71.171,40.25 73.09,38.331 73.09,36C73.09,35.98 73.09,35.959 73.09,35.939C73.09,33.641 71.199,31.749 68.9,31.749C68.874,31.749 68.847,31.749 68.82,31.75L68.83,31.75ZM68.83,38.58C68.767,38.585 68.703,38.587 68.64,38.587C67.225,38.587 66.06,37.422 66.06,36.007C66.06,34.592 67.225,33.427 68.64,33.427C70.053,33.427 71.216,34.587 71.22,36C71.222,36.04 71.223,36.08 71.223,36.121C71.223,37.449 70.148,38.549 68.82,38.58L68.83,38.58ZM57.74,33.06L57.74,34.86L62.06,34.86C61.992,35.708 61.64,36.508 61.06,37.13C60.186,38.02 58.976,38.5 57.73,38.45C55.097,38.45 52.93,36.283 52.93,33.65C52.93,31.017 55.097,28.85 57.73,28.85C58.947,28.83 60.124,29.294 61,30.14L62.27,28.87C61.075,27.66 59.44,26.985 57.74,27C57.654,26.997 57.569,26.995 57.483,26.995C53.857,26.995 50.873,29.979 50.873,33.605C50.873,37.231 53.857,40.215 57.483,40.215C57.569,40.215 57.654,40.213 57.74,40.21C59.471,40.288 61.153,39.613 62.35,38.36C63.397,37.209 63.957,35.695 63.91,34.14C63.913,33.761 63.88,33.383 63.81,33.01L57.74,33.06ZM103.05,34.46C102.517,32.893 101.064,31.811 99.41,31.75C99.407,31.75 99.405,31.75 99.402,31.75C97.208,31.75 95.402,33.556 95.402,35.75C95.402,35.833 95.405,35.917 95.41,36C95.409,36.03 95.409,36.06 95.409,36.09C95.409,38.373 97.287,40.25 99.569,40.25C99.589,40.25 99.61,40.25 99.63,40.25C101.049,40.258 102.381,39.55 103.17,38.37L101.72,37.37C101.28,38.103 100.485,38.552 99.63,38.55C98.745,38.584 97.926,38.07 97.57,37.26L103.26,34.91L103.05,34.46ZM97.25,35.88C97.247,35.829 97.245,35.778 97.245,35.728C97.245,34.489 98.233,33.456 99.47,33.4C100.128,33.357 100.752,33.712 101.05,34.3L97.25,35.88ZM92.63,40L94.5,40L94.5,27.5L92.63,27.5L92.63,40ZM89.57,32.7L89.5,32.7C88.93,32.063 88.115,31.699 87.26,31.7C85.003,31.809 83.206,33.696 83.206,35.955C83.206,38.214 85.003,40.101 87.26,40.21C88.117,40.224 88.938,39.858 89.5,39.21L89.56,39.21L89.56,39.82C89.56,41.45 88.69,42.32 87.29,42.32C86.338,42.298 85.49,41.699 85.15,40.81L83.52,41.49C84.146,43.014 85.643,44.01 87.29,44C89.48,44 91.29,42.71 91.29,39.57L91.29,32L89.57,32L89.57,32.7ZM87.43,38.58C86.1,38.463 85.067,37.335 85.067,36C85.067,34.665 86.1,33.537 87.43,33.42C88.699,33.485 89.707,34.547 89.707,35.817C89.707,35.878 89.705,35.939 89.7,36C89.706,36.067 89.709,36.134 89.709,36.202C89.709,37.473 88.69,38.531 87.42,38.58L87.43,38.58ZM111.81,27.5L107.34,27.5L107.34,40L109.21,40L109.21,35.26L111.82,35.26C111.913,35.267 112.006,35.27 112.099,35.27C114.233,35.27 115.989,33.514 115.989,31.38C115.989,29.246 114.233,27.49 112.099,27.49C112.006,27.49 111.913,27.493 111.82,27.5L111.81,27.5ZM111.81,33.5L109.2,33.5L109.2,29.24L111.85,29.24C113.027,29.24 113.995,30.208 113.995,31.385C113.995,32.562 113.027,33.53 111.85,33.53C111.85,33.53 111.81,33.5 111.81,33.5ZM123.34,31.7C121.951,31.617 120.639,32.369 120.01,33.61L121.67,34.3C122.004,33.685 122.672,33.323 123.37,33.38C123.439,33.372 123.509,33.368 123.579,33.368C124.499,33.368 125.279,34.074 125.37,34.99L125.37,35.12C124.769,34.802 124.1,34.637 123.42,34.64C121.63,34.64 119.82,35.64 119.82,37.45C119.89,38.984 121.171,40.208 122.707,40.208C122.778,40.208 122.849,40.205 122.92,40.2C123.878,40.269 124.8,39.808 125.32,39L125.38,39L125.38,40L127.18,40L127.18,35.19C127.18,33 125.52,31.73 123.39,31.73L123.34,31.7ZM123.11,38.55C122.5,38.55 121.65,38.24 121.65,37.49C121.65,36.49 122.71,36.16 123.65,36.16C124.244,36.145 124.831,36.29 125.35,36.58C125.221,37.694 124.281,38.553 123.16,38.58L123.11,38.55ZM133.74,32L131.6,37.42L131.54,37.42L129.32,32L127.32,32L130.65,39.58L128.75,43.79L130.7,43.79L135.82,32L133.74,32ZM116.93,40L118.8,40L118.8,27.5L116.93,27.5L116.93,40Z" style="fill:white;fill-rule:nonzero;"/>
        <path d="M20.44,17.54C20.114,17.931 19.95,18.432 19.98,18.94L19.98,41.06C19.95,41.568 20.114,42.069 20.44,42.46L20.51,42.53L32.9,30.15L32.9,29.86L20.51,17.47L20.44,17.54Z" style="fill:url(#_Linear1);fill-rule:nonzero;"/>
        <path d="M37,34.28L32.9,30.15L32.9,29.86L37,25.72L37.09,25.77L42,28.56C43.4,29.35 43.4,30.65 42,31.45L37.11,34.23L37,34.28Z" style="fill:url(#_Linear2);fill-rule:nonzero;"/>
        <path d="M37.12,34.22L32.9,30L20.44,42.46C21.026,42.975 21.905,43.001 22.52,42.52L37.13,34.22" style="fill:url(#_Linear3);fill-rule:nonzero;"/>
        <path d="M37.12,25.78L22.51,17.48C21.895,16.999 21.016,17.025 20.43,17.54L32.9,30L37.12,25.78Z" style="fill:url(#_Linear4);fill-rule:nonzero;"/>
        <path d="M37,34.13L22.51,42.38C21.919,42.822 21.101,42.822 20.51,42.38L20.44,42.45L20.51,42.52C21.1,42.965 21.92,42.965 22.51,42.52L37.12,34.22L37,34.13Z" style="fill-opacity:0.2;fill-rule:nonzero;"/>
        <path d="M20.44,42.32C20.114,41.929 19.95,41.428 19.98,40.92L19.98,41.07C19.95,41.578 20.114,42.079 20.44,42.47L20.51,42.4L20.44,42.32ZM42,31.3L37,34.13L37.09,34.22L42,31.44C42.566,31.174 42.949,30.624 43,30C42.886,30.564 42.516,31.045 42,31.3Z" style="fill-opacity:0.12;fill-rule:nonzero;"/>
        <path d="M22.51,17.62L42,28.7C42.516,28.955 42.886,29.436 43,30C42.949,29.376 42.566,28.826 42,28.56L22.51,17.48C21.11,16.69 19.97,17.35 19.97,18.95L19.97,19.1C20,17.49 21.12,16.83 22.51,17.62Z" style="fill:white;fill-opacity:0.25;fill-rule:nonzero;"/>
    </g>
    <defs>
        <linearGradient id="_Linear1" x1="0" y1="0" x2="1" y2="0" gradientUnits="userSpaceOnUse" gradientTransform="matrix(-16.78,16.78,-16.78,-16.78,31.8,18.71)"><stop offset="0" style="stop-color:rgb(0,160,255);stop-opacity:1"/><stop offset="0.01" style="stop-color:rgb(0,161,255);stop-opacity:1"/><stop offset="0.26" style="stop-color:rgb(0,190,255);stop-opacity:1"/><stop offset="0.51" style="stop-color:rgb(0,210,255);stop-opacity:1"/><stop offset="0.76" style="stop-color:rgb(0,223,255);stop-opacity:1"/><stop offset="1" style="stop-color:rgb(0,227,255);stop-opacity:1"/></linearGradient>
        <linearGradient id="_Linear2" x1="0" y1="0" x2="1" y2="0" gradientUnits="userSpaceOnUse" gradientTransform="matrix(-24.19,2.96242e-15,-2.96242e-15,-24.19,43.83,30)"><stop offset="0" style="stop-color:rgb(255,224,0);stop-opacity:1"/><stop offset="0.41" style="stop-color:rgb(255,189,0);stop-opacity:1"/><stop offset="0.78" style="stop-color:rgb(255,165,0);stop-opacity:1"/><stop offset="1" style="stop-color:rgb(255,156,0);stop-opacity:1"/></linearGradient>
        <linearGradient id="_Linear3" x1="0" y1="0" x2="1" y2="0" gradientUnits="userSpaceOnUse" gradientTransform="matrix(-22.76,22.75,-22.75,-22.76,34.83,32.3)"><stop offset="0" style="stop-color:rgb(255,58,68);stop-opacity:1"/><stop offset="1" style="stop-color:rgb(195,17,98);stop-opacity:1"/></linearGradient>
        <linearGradient id="_Linear4" x1="0" y1="0" x2="1" y2="0" gradientUnits="userSpaceOnUse" gradientTransform="matrix(10.16,10.16,-10.16,10.16,17.3,10.18)"><stop offset="0" style="stop-color:rgb(50,160,113);stop-opacity:1"/><stop offset="0.07" style="stop-color:rgb(45,167,113);stop-opacity:1"/><stop offset="0.48" style="stop-color:rgb(21,207,116);stop-opacity:1"/><stop offset="0.8" style="stop-color:rgb(6,231,117);stop-opacity:1"/><stop offset="1" style="stop-color:rgb(0,240,118);stop-opacity:1"/></linearGradient>
    </defs>
</svg>

<svg xmlns="http://www.w3.org/2000/svg" viewBox="0 0 155 60"><defs><linearGradient id="a" x1="31.8" y1="183.29" x2="15.02" y2="166.51" gradientTransform="matrix(1 0 0 -1 0 202)" gradientUnits="userSpaceOnUse"><stop offset="0" stop-color="#00a0ff"/><stop offset=".01" stop-color="#00a1ff"/><stop offset=".26" stop-color="#00beff"/><stop offset=".51" stop-color="#00d2ff"/><stop offset=".76" stop-color="#00dfff"/><stop offset="1" stop-color="#00e3ff"/></linearGradient><linearGradient id="b" x1="43.83" y1="172" x2="19.64" y2="172" gradientTransform="matrix(1 0 0 -1 0 202)" gradientUnits="userSpaceOnUse"><stop offset="0" stop-color="#ffe000"/><stop offset=".41" stop-color="#ffbd00"/><stop offset=".78" stop-color="orange"/><stop offset="1" stop-color="#ff9c00"/></linearGradient><linearGradient id="c" x1="34.83" y1="169.7" x2="12.07" y2="146.95" gradientTransform="matrix(1 0 0 -1 0 202)" gradientUnits="userSpaceOnUse"><stop offset="0" stop-color="#ff3a44"/><stop offset="1" stop-color="#c31162"/></linearGradient><linearGradient id="d" x1="17.3" y1="191.82" x2="27.46" y2="181.66" gradientTransform="matrix(1 0 0 -1 0 202)" gradientUnits="userSpaceOnUse"><stop offset="0" stop-color="#32a071"/><stop offset=".07" stop-color="#2da771"/><stop offset=".48" stop-color="#15cf74"/><stop offset=".8" stop-color="#06e775"/><stop offset="1" stop-color="#00f076"/></linearGradient></defs><title>bg_get</title><path fill="none" d="M0 0h155v60H0z"/><rect x="10" y="10" width="135" height="40" rx="5" ry="5"/><path d="M140 10.8a4.2 4.2 0 0 1 4.2 4.2v30a4.2 4.2 0 0 1-4.2 4.2H15a4.2 4.2 0 0 1-4.2-4.2V15a4.2 4.2 0 0 1 4.2-4.2h125m0-.8H15a5 5 0 0 0-5 5v30a5 5 0 0 0 5 5h125a5 5 0 0 0 5-5V15a5 5 0 0 0-5-5z" fill="#a6a6a6"/><path d="M56.34 23h-.74v-5.32h-3V23h-.75v-6h4.49zM62 18.78a1.68 1.68 0 0 1-.63 1.41 2.81 2.81 0 0 1-1.76.49h-.71V23h-.75v-6h1.58Q62 17 62 18.78zM58.9 20h.6a2.25 2.25 0 0 0 1.29-.29 1.07 1.07 0 0 0 .4-.93 1 1 0 0 0-.37-.86 1.91 1.91 0 0 0-1.16-.29h-.76zM66.73 23h-3.34v-6h3.34v.66h-2.59v1.87h2.44v.65h-2.44v2.14h2.59zM73 24.58h-.72V23h-4.11v1.58h-.72v-2.25h.46a11.46 11.46 0 0 0 1-2.5 12.26 12.26 0 0 0 .57-2.83h2.77v5.31H73zm-1.51-2.25V17.7h-1.35a11 11 0 0 1-.5 2.38 11 11 0 0 1-.94 2.25zM78.47 23h-.75v-5.32h-1.89l-.13 1q-.26 2-.45 2.88a2.74 2.74 0 0 1-.5 1.21 1.08 1.08 0 0 1-.84.34 1.38 1.38 0 0 1-.54-.1v-.63a1.05 1.05 0 0 0 .46.1c.21 0 .39-.14.51-.41a8.58 8.58 0 0 0 .41-1.84q.22-1.44.45-3.2h3.27zM84 23l-.72-1.85h-2.35L80.22 23h-.76l2.34-6h.68l2.33 6zm-.95-2.52l-.67-1.81-.29-.9q-.12.49-.26.9l-.68 1.81zM89.17 17v.67h-2.62V23h-.75v-6zM93.82 23l-.72-1.85h-2.37L90 23h-.76l2.34-6h.68l2.33 6zm-.95-2.52l-.67-1.81-.29-.9q-.12.49-.26.9L91 20.48zM100.5 17.59a1.89 1.89 0 0 0-1.52.65 2.63 2.63 0 0 0-.55 1.76 2.67 2.67 0 0 0 .57 1.79 1.89 1.89 0 0 0 1.53.63 5.09 5.09 0 0 0 1.44-.24v.65a3.69 3.69 0 0 1-.73.19 5.75 5.75 0 0 1-.81.05 2.58 2.58 0 0 1-2-.8 3.31 3.31 0 0 1-.8-2.27 3.62 3.62 0 0 1 .37-1.62 2.45 2.45 0 0 1 1-1.07 3 3 0 0 1 1.54-.38 3.65 3.65 0 0 1 1.65.35l-.3.64a3.28 3.28 0 0 0-1.39-.33zM106.74 23h-3.34v-6h3.34v.66h-2.59v1.87h2.44v.65h-2.44v2.14h2.59zM110.57 17h1.71a3.22 3.22 0 0 1 1.74.36 1.26 1.26 0 0 1 .53 1.12 1.32 1.32 0 0 1-.29.88 1.39 1.39 0 0 1-.85.45 1.72 1.72 0 0 1 1 .48 1.37 1.37 0 0 1 .33 1 1.53 1.53 0 0 1-.55 1.25 2.35 2.35 0 0 1-1.53.45h-2.1zm.75 2.55h1.1a1.81 1.81 0 0 0 1-.23.86.86 0 0 0 .32-.75.77.77 0 0 0-.35-.71 2.17 2.17 0 0 0-1.11-.22h-1zm0 .63v2.17h1.21a1.69 1.69 0 0 0 1.07-.28 1 1 0 0 0 .35-.84.9.9 0 0 0-.37-.79 1.94 1.94 0 0 0-1.1-.26z" fill="#fff" stroke="#fff" stroke-miterlimit="10" stroke-width=".2"/><path d="M78.14 31.75A4.25 4.25 0 1 0 82.41 36a4.19 4.19 0 0 0-4.27-4.25zm0 6.83a2.58 2.58 0 1 1 2.4-2.58 2.46 2.46 0 0 1-2.4 2.58zm-9.31-6.83A4.25 4.25 0 1 0 73.09 36a4.19 4.19 0 0 0-4.27-4.25zm0 6.83A2.58 2.58 0 1 1 71.22 36a2.46 2.46 0 0 1-2.4 2.58zm-11.09-5.52v1.8h4.32a3.77 3.77 0 0 1-1 2.27 4.42 4.42 0 0 1-3.33 1.32 4.8 4.8 0 0 1 0-9.6A4.6 4.6 0 0 1 61 30.14l1.27-1.27A6.29 6.29 0 0 0 57.74 27a6.61 6.61 0 1 0 0 13.21 6 6 0 0 0 4.61-1.85 6 6 0 0 0 1.56-4.22 5.87 5.87 0 0 0-.1-1.13zm45.31 1.4a4 4 0 0 0-3.64-2.71 4 4 0 0 0-4 4.25 4.16 4.16 0 0 0 4.22 4.25 4.23 4.23 0 0 0 3.54-1.88l-1.45-1a2.43 2.43 0 0 1-2.09 1.18 2.16 2.16 0 0 1-2.06-1.29l5.69-2.35zm-5.8 1.42a2.33 2.33 0 0 1 2.22-2.48 1.65 1.65 0 0 1 1.58.9zM92.63 40h1.87V27.5h-1.87zm-3.06-7.3h-.07a3 3 0 0 0-2.24-1 4.26 4.26 0 0 0 0 8.51 2.9 2.9 0 0 0 2.24-1h.06v.61c0 1.63-.87 2.5-2.27 2.5a2.35 2.35 0 0 1-2.14-1.51l-1.63.68A4.05 4.05 0 0 0 87.29 44c2.19 0 4-1.29 4-4.43V32h-1.72zm-2.14 5.88a2.59 2.59 0 0 1 0-5.16A2.4 2.4 0 0 1 89.7 36a2.38 2.38 0 0 1-2.28 2.58zm24.38-11.08h-4.47V40h1.87v-4.74h2.61a3.89 3.89 0 1 0 0-7.76zm0 6h-2.61v-4.26h2.65a2.14 2.14 0 1 1 0 4.29zm11.53-1.8a3.5 3.5 0 0 0-3.33 1.91l1.66.69a1.77 1.77 0 0 1 1.7-.92 1.8 1.8 0 0 1 2 1.61v.13a4.13 4.13 0 0 0-1.95-.48c-1.79 0-3.6 1-3.6 2.81a2.89 2.89 0 0 0 3.1 2.75 2.63 2.63 0 0 0 2.4-1.2h.06v1h1.8v-4.81c0-2.19-1.66-3.46-3.79-3.46zm-.23 6.85c-.61 0-1.46-.31-1.46-1.06 0-1 1.06-1.33 2-1.33a3.32 3.32 0 0 1 1.7.42 2.26 2.26 0 0 1-2.19 2zM133.74 32l-2.14 5.42h-.06L129.32 32h-2l3.33 7.58-1.9 4.21h1.95L135.82 32zm-16.81 8h1.87V27.5h-1.87z" fill="#fff"/><path d="M20.44 17.54a2 2 0 0 0-.46 1.4v22.12a2 2 0 0 0 .46 1.4l.07.07L32.9 30.15v-.29L20.51 17.47z" fill="url(#a)"/><path d="M37 34.28l-4.1-4.13v-.29l4.1-4.14.09.05L42 28.56c1.4.79 1.4 2.09 0 2.89l-4.89 2.78z" fill="url(#b)"/><path d="M37.12 34.22L32.9 30 20.44 42.46a1.63 1.63 0 0 0 2.08.06l14.61-8.3" fill="url(#c)"/><path d="M37.12 25.78l-14.61-8.3a1.63 1.63 0 0 0-2.08.06L32.9 30z" fill="url(#d)"/><path d="M37 34.13l-14.49 8.25a1.67 1.67 0 0 1-2 0l-.07.07.07.07a1.66 1.66 0 0 0 2 0l14.61-8.3z" style="isolation:isolate" opacity=".2"/><path d="M20.44 42.32a2 2 0 0 1-.46-1.4v.15a2 2 0 0 0 .46 1.4l.07-.07zM42 31.3l-5 2.83.09.09L42 31.44A1.75 1.75 0 0 0 43 30a1.86 1.86 0 0 1-1 1.3z" style="isolation:isolate" opacity=".12"/><path d="M22.51 17.62L42 28.7a1.86 1.86 0 0 1 1 1.3 1.75 1.75 0 0 0-1-1.44L22.51 17.48c-1.4-.79-2.54-.13-2.54 1.47v.15c.03-1.61 1.15-2.27 2.54-1.48z" style="isolation:isolate" fill="#fff" opacity=".25"/></svg>
